logos/clio-lang.svg

<?xml version="1.0" encoding="UTF-8"?>
<svg width="256px" height="256px" viewBox="0 0 256 256" version="1.1" xmlns="http://www.w3.org/2000/svg" preserveAspectRatio="xMidYMid">
    <title>Clio</title>
    <g>
        <polygon fill="#351330" points="6.34560283 6.34779662 249.804223 6.34779662 249.804223 249.658627 6.34560283 249.658627"></polygon>
        <path d="M256,0 L0,0 L0,256.002058 L256,256.002058 L256,0 Z M246.034371,9.97128132 L246.034371,246.030777 L9.96562891,246.030777 L9.96562891,9.97128132 L246.034371,9.97128132 Z" fill="#CC2A41"></path>
        <path d="M172.533744,166.935562 L161.863047,170.875473 C156.378463,164.174584 153.151094,156.46617 149.884361,148.779681 C149.433416,147.584304 148.98297,146.39092 148.532025,145.196041 C147.431699,142.471147 146.464089,139.684858 145.624699,136.170669 C143.734717,128.138372 141.677132,120.580156 139.876378,112.054843 C137.113906,120.078171 134.351433,128.101499 131.588961,136.124827 C130.50769,139.164842 129.42642,142.204359 128.345647,145.244374 C125.250323,153.798371 122.155497,162.352369 118.990413,171.0997 L109.038238,168.90776 C111.905349,160.959672 114.723629,153.146619 117.541909,145.334065 C118.685963,142.279599 119.829519,139.225134 120.973075,136.170669 C124.648399,126.411328 128.324221,116.65149 132.000043,106.892149 C132.349837,105.963851 132.708101,104.967288 133.105232,103.920897 L137.319238,103.920897 C134.490992,92.5600801 127.588209,85.6632508 115.551723,84.4140592 C116.097839,81.5798344 116.608628,78.8583369 117.151755,76.0370674 C125.113295,76.8522558 132.474193,78.4378448 138.299195,84.8050447 C144.124198,91.1722446 146.152233,95.8661775 148.016802,102.58052 C149.166836,106.724228 150.242127,110.888367 151.350803,115.043535 C152.835682,120.530112 154.320062,126.016689 155.804443,131.503266 C156.242432,133.077338 156.680422,134.65091 157.118411,136.224981 C158.195197,139.264997 159.271983,142.305012 160.34877,145.345027 C162.887015,153.306568 166.819452,160.498264 172.533744,166.935562 Z" fill="#504E4D"></path>
        <path d="M76.7405736,136.457099 L76.7405736,145.403781 C144.982829,145.403781 179.103957,145.403781 179.103957,145.403781 C177.119184,146.42654 168.654634,155.285187 153.710307,171.979724 L161.532602,178.9553 L195.33691,140.86633 L161.532602,102.779794 L153.710307,109.471436 C167.804863,125.563964 176.269413,134.559185 179.103957,136.457099 C179.103957,136.457099 144.982829,136.457099 76.7405736,136.457099 Z" fill="#CC2A41"></path>
        <path d="M149.64321,166.935562 L138.972513,170.875473 C133.487929,164.174584 130.26056,156.46617 126.993827,148.779681 C126.542882,147.584304 126.092436,146.39092 125.641491,145.196041 C124.541165,142.471147 123.573555,139.684858 122.734165,136.170669 C120.844184,128.138372 118.786598,120.580156 116.985844,112.054843 C114.223372,120.078171 111.4609,128.101499 108.698427,136.124827 C107.617157,139.164842 106.535886,142.204359 105.455113,145.244374 C102.359789,153.798371 99.264963,162.352369 96.0998793,171.0997 L86.147704,168.90776 C89.0148154,160.959672 91.8330953,153.146619 94.6513751,145.334065 C95.7954293,142.279599 96.9389852,139.225134 98.0825411,136.170669 C101.757865,126.411328 105.433687,116.65149 109.10951,106.892149 C109.459303,105.963851 109.817567,104.967288 110.214698,103.920897 L114.428704,103.920897 C111.600458,92.5600801 104.697675,85.6632508 92.6611889,84.4140592 C93.2073054,81.5798344 93.718094,78.8583369 94.2612207,76.0370674 C102.222762,76.8522558 109.583659,78.4378448 115.408661,84.8050447 C121.233664,91.1722446 123.261699,95.8661775 125.126268,102.58052 C126.276302,106.724228 127.351593,110.888367 128.460269,115.043535 C129.945148,120.530112 131.429529,126.016689 132.913909,131.503266 C133.351898,133.077338 133.789888,134.65091 134.227877,136.224981 C135.304663,139.264997 136.38145,142.305012 137.458236,145.345027 C139.996482,153.306568 143.928919,160.498264 149.64321,166.935562 Z" fill="#E8CAA4"></path>
    </g>
</svg>

<svg preserveAspectRatio="xMidYMid" viewBox="0 0 256 256" xmlns="http://www.w3.org/2000/svg">
  <path fill="#351330" d="M6.346 6.348h243.458v243.31H6.346z"/>
  <path fill="#CC2A41" d="M256 0H0v256.002h256V0Zm-9.966 9.971v236.06H9.966V9.97h236.068Z"/>
  <path fill="#504E4D" d="m172.534 166.936-10.671 3.94c-5.485-6.701-8.712-14.41-11.979-22.096-.45-1.196-.901-2.39-1.352-3.584-1.1-2.725-2.068-5.511-2.907-9.025-1.89-8.033-3.948-15.59-5.749-24.116l-8.287 24.07-3.243 9.12-9.356 25.855-9.952-2.192 8.504-23.574 3.431-9.163L132 106.892c.35-.928.708-1.925 1.105-2.971h4.214c-2.828-11.36-9.73-18.258-21.767-19.507.546-2.834 1.057-5.556 1.6-8.377 7.961.815 15.322 2.4 21.147 8.768 5.825 6.367 7.853 11.061 9.718 17.776 1.15 4.143 2.225 8.307 3.334 12.463 1.485 5.486 2.97 10.973 4.453 16.46l1.314 4.721 3.23 9.12c2.539 7.962 6.471 15.153 12.186 21.59Z"/>
  <path fill="#CC2A41" d="M76.74 136.457v8.947h102.364c-1.985 1.023-10.45 9.881-25.394 26.576l7.823 6.975 33.804-38.089-33.804-38.086-7.823 6.691c14.095 16.093 22.56 25.088 25.394 26.986H76.741Z"/>
  <path fill="#E8CAA4" d="m149.643 166.936-10.67 3.94c-5.485-6.701-8.712-14.41-11.98-22.096-.45-1.196-.9-2.39-1.352-3.584-1.1-2.725-2.067-5.511-2.907-9.025-1.89-8.033-3.947-15.59-5.748-24.116l-8.288 24.07-3.243 9.12L96.1 171.1l-9.952-2.192 8.503-23.574 3.432-9.163c3.675-9.76 7.35-19.52 11.027-29.279.35-.928.708-1.925 1.105-2.971h4.214c-2.829-11.36-9.731-18.258-21.768-19.507.546-2.834 1.057-5.556 1.6-8.377 7.962.815 15.323 2.4 21.148 8.768 5.825 6.367 7.853 11.061 9.717 17.776 1.15 4.143 2.226 8.307 3.334 12.463l4.454 16.46 1.314 4.721 3.23 9.12c2.538 7.962 6.47 15.153 12.185 21.59Z"/>
</svg>
